source/img/apple-logo.svg

<svg width="47" height="56" viewBox="0 0 47 56" fill="none" xmlns="http://www.w3.org/2000/svg">
<path d="M39.2449 29.7391C39.2544 32.1546 39.994 34.5144 41.3723 36.5268C42.7506 38.5393 44.7071 40.1162 47 41.0627C46.0779 43.8922 44.7301 46.5744 43.0003 49.0227C40.5985 52.4356 38.0949 55.8386 34.1562 55.9273C30.2176 56.0161 29.0676 53.708 24.6303 53.708C20.193 53.708 18.8292 55.8583 15.1654 55.9964C11.5016 56.1345 8.47889 52.2778 6.07705 48.8846C1.1207 41.98 -2.67543 29.246 2.41322 20.6842C3.60995 18.6123 5.34099 16.8769 7.43708 15.6476C9.53317 14.4183 11.9225 13.7373 14.3716 13.6711C18.0964 13.6021 21.6178 16.0976 23.8975 16.0976C26.1772 16.0976 30.4619 13.0892 34.9602 13.533C37.0437 13.6063 39.0815 14.1457 40.9142 15.1091C42.7468 16.0725 44.3247 17.4337 45.5243 19.0863C45.2495 19.254 39.2144 22.657 39.2754 29.7391H39.2449ZM31.9783 8.93654C34.1591 6.45976 35.2387 3.24645 34.9806 0C31.6761 0.302095 28.6167 1.81996 26.4317 4.2414C24.5692 6.33251 22.9307 9.68618 23.3785 12.9018C26.625 13.1484 29.9327 11.3038 31.9478 8.95627" fill="white"/>
</svg>

<svg width="47" height="56" fill="none" xmlns="http://www.w3.org/2000/svg"><path d="M39.24 29.74c.01 2.41.75 4.77 2.13 6.79A12.67 12.67 0 0047 41.06a29.8 29.8 0 01-4 7.96c-2.4 3.42-4.9 6.82-8.84 6.9-3.94.1-5.1-2.21-9.53-2.21-4.44 0-5.8 2.15-9.46 2.29-3.67.13-6.7-3.72-9.1-7.12-4.95-6.9-8.75-19.63-3.66-28.2 1.2-2.07 2.93-3.8 5.03-5.03a14.49 14.49 0 016.93-1.98c3.73-.07 7.25 2.43 9.53 2.43 2.28 0 6.56-3.01 11.06-2.57 2.08.08 4.12.62 5.95 1.58 1.84.96 3.41 2.32 4.61 3.98-.27.16-6.3 3.57-6.24 10.65h-.04zm-7.26-20.8a12.07 12.07 0 003-8.94c-3.3.3-6.36 1.82-8.55 4.24-1.86 2.1-3.5 5.45-3.05 8.66 3.25.25 6.55-1.6 8.57-3.94" fill="#fff"/></svg>
